src/assets/icons/password.svg

<svg width="24" height="24" viewBox="0 0 24 24" fill="none" xmlns="http://www.w3.org/2000/svg">
<path d="M8.75 11.75V9.75C8.75 7.75 9.75 5.75 12.75 5.75C15.75 5.75 16.75 7.75 16.75 9.75V11.75" stroke="#314158" stroke-width="1.5" stroke-linecap="round" stroke-linejoin="round"/>
<path d="M7.25 11.75C7.25 11.1977 7.69772 10.75 8.25 10.75H17.25C17.8023 10.75 18.25 11.1977 18.25 11.75V17.75C18.25 18.3023 17.8023 18.75 17.25 18.75H8.25C7.69771 18.75 7.25 18.3023 7.25 17.75V11.75Z" stroke="#314158" stroke-width="1.5" stroke-linecap="round" stroke-linejoin="round"/>
</svg>

<svg fill="none" viewBox="0 0 24 24"><path stroke="currentColor" stroke-linecap="round" stroke-linejoin="round" stroke-width="1.5" d="M8.75 11.75v-2c0-2 1-4 4-4s4 2 4 4v2"/><path stroke="currentColor" stroke-linecap="round" stroke-linejoin="round" stroke-width="1.5" d="M7.25 11.75a1 1 0 0 1 1-1h9a1 1 0 0 1 1 1v6a1 1 0 0 1-1 1h-9a1 1 0 0 1-1-1z"/></svg>
